X: 34
%
T: Biodag aig Mac Alasdair
T: Macalister Wears a Dirk
C:
O:Scotland
B:Keith Norman MacDonald : "The Skye collection of the best reels & strathspeys extant" : 1887
Z:Ralph Palmer
R:Reel
M:C|
L:1/8
K:A
B(ee)d {/d}cA B2 |{/d}cAAB {/F}=GA TB2 | Be-e=g dgB{/c}d | {/d}cA A/2A/2A {/F}^GEE :|
e | {/d}cA A/2A/2A {/c}d=GdB | {/d}cAAc {/c}dB=GB | {/d}cA A/2A/2A {/c}d=GdB | {/d}cAAB =GEEe |
{/d}cA A/2A/2A {/c}(d=G)dB | {/d}cAAc {/c}dB=GB | {/d}cA A/2A/2A {/c}(dB) B/2B/2B | {/d}[cf]A A/2A/2A {/F}=GEE |]
W: Biodag air Mac Alasdair?


